Suru++-Ubuntu/apps/scalable/goa-account-foursquare.svg

<svg xmlns="http://www.w3.org/2000/svg" xmlns:xlink="http://www.w3.org/1999/xlink" width="256" height="256" version="1.1" viewBox="0 0 67.73 67.73">
 <defs>
  <linearGradient id="linearGradient1108" x1="296" x2="296" y1="-212" y2="202.4" gradientUnits="userSpaceOnUse" xlink:href="#linearGradient1013"/>
  <linearGradient id="linearGradient1013">
   <stop offset="0" style="stop-color:#ffffff"/>
   <stop style="stop-color:#ffffff;stop-opacity:0.09803922" offset=".135"/>
   <stop style="stop-color:#ffffff;stop-opacity:0" offset="1"/>
  </linearGradient>
  <clipPath id="clipPath1082-3-3675" clipPathUnits="userSpaceOnUse">
   <path d="M 361.9375,-212 C 507.2348,-212 528,-191.28677 528,-46.125 V 70.125 C 528,215.28618 507.2348,236 361.9375,236 H 214.0625 C 68.7652,236 48,215.28618 48,70.125 V -46.125 C 48,-191.28677 68.7652,-212 214.0625,-212 Z" style="fill:#8c59d9"/>
  </clipPath>
  <filter style="color-interpolation-filters:sRGB" id="filter910" width="1.046" height="1.05" x="-.02" y="-.03">
   <feGaussianBlur stdDeviation="2.32"/>
  </filter>
  <filter style="color-interpolation-filters:sRGB" id="filter4569" width="1.023" height="1.025" x="-.01" y="-.01">
   <feGaussianBlur stdDeviation="1.16"/>
  </filter>
 </defs>
 <g transform="translate(0,-229.26666)">
  <g style="enable-background:new" transform="matrix(0.12974173,0,0,0.12974173,3.8344818,227.85345)">
   <path d="m 301.90773,44.402363 c 148.15296,0 169.32628,21.120327 169.32628,169.135097 v 118.53478 c 0,148.01417 -21.17332,169.1351 -169.32628,169.1351 H 151.12641 c -148.1529701,0 -169.32628,-21.12093 -169.32628,-169.1351 V 213.53746 c 0,-148.01477 21.1733099,-169.135097 169.32628,-169.135097 z" style="opacity:0.2;fill:none;stroke:#000000;stroke-width:8.15723133;stroke-linecap:round;stroke-linejoin:round"/>
   <path d="m 162.53675,3.5680001 c 72.64865,0 83.03125,10.3566149 83.03125,82.9375049 v 58.125005 c 0,72.58059 -10.3826,82.9375 -83.03125,82.9375 H 88.599254 C 15.9506,227.56801 5.568,217.2111 5.568,144.63051 V 86.505505 c 0,-72.58089 10.3826,-82.9375049 83.031254,-82.9375049 z" transform="matrix(2.0393079,0,0,2.0393079,-29.55473,37.126102)" style="opacity:0.1;filter:url(#filter4569)"/>
   <path style="opacity:0.2;filter:url(#filter910)" d="m 162.53675,5.5680001 c 72.64865,0 83.03125,10.3566149 83.03125,82.9375049 v 58.125005 c 0,72.58059 -10.3826,82.9375 -83.03125,82.9375 H 88.599254 C 15.9506,229.56801 5.568,219.2111 5.568,146.63051 V 88.505505 c 0,-72.58089 10.3826,-82.9375049 83.031254,-82.9375049 z" transform="matrix(2.0393079,0,0,2.0393079,-29.55473,37.126102)"/>
   <path style="fill:#25b2ee" d="m 301.90773,43.795222 c 148.15296,0 169.32628,21.120327 169.32628,169.135098 V 331.4651 c 0,148.01417 -21.17332,169.1351 -169.32628,169.1351 H 151.12641 c -148.1529701,0 -169.32628,-21.12093 -169.32628,-169.1351 V 212.93032 c 0,-148.014771 21.1733099,-169.135098 169.32628,-169.135098 z"/>
   <path d="M 361.9375,-212 C 507.2348,-212 528,-191.28677 528,-46.125 V 70.125 C 528,215.28618 507.2348,236 361.9375,236 H 214.0625 C 68.7652,236 48,215.28618 48,70.125 V -46.125 C 48,-191.28677 68.7652,-212 214.0625,-212 Z" clip-path="url(#clipPath1082-3-3675)" transform="matrix(1.0196539,0,0,1.0196539,-67.14326,259.75844)" style="opacity:0.5;fill:none;stroke:url(#linearGradient1108);stroke-width:8;stroke-linecap:round;stroke-linejoin:round"/>
   <g style="clip-rule:evenodd;fill-rule:evenodd;image-rendering:optimizeQuality;shape-rendering:geometricPrecision;text-rendering:geometricPrecision" transform="matrix(1.5994524,0,0,1.5994524,152.50102,-2822.5049)">
    <path style="clip-rule:evenodd;fill:#196fba;fill-rule:evenodd;image-rendering:optimizeQuality;shape-rendering:geometricPrecision;text-rendering:geometricPrecision" class="fil1" d="m 50.775117,1900.8169 c 0,29.4076 -23.8418,53.2488 -53.2508801,53.2488 -29.4071699,0 -53.2486799,-23.8412 -53.2486799,-53.2488 0,-29.4093 23.84136,-53.2509 53.2486799,-53.2509 29.4095201,0 53.2505901,23.8415 53.2508801,53.2509 z"/>
    <polygon style="clip-rule:evenodd;fill:#196fba;fill-rule:evenodd;image-rendering:optimizeQuality;shape-rendering:geometricPrecision;text-rendering:geometricPrecision" class="fil1" points="959.04 906.24 763.68 1121.28 1076.24 1423.36 1680.64 896 1680.64 542.72 1104 1182.72" transform="matrix(0.14648437,0,0,0.14648437,-102.97488,1779.3154)"/>
    <path style="clip-rule:evenodd;fill:#196fba;fill-rule:evenodd;image-rendering:optimizeQuality;shape-rendering:geometricPrecision;text-rendering:geometricPrecision" class="fil1" d="m 139.45237,1855.4263 -0.28011,0.3103 v 7e-4 l -44.421533,49.303 -34.22491,-34.2249 -70.1738704,82.5274 70.1738704,70.4727 75.750003,-77.2506 -12.40453,-12.4042 24.40488,-21.2941 v -53.0304 -14.2034 l -7.76414,8.6173 -1.05936,1.1761 z m -37.53282,56.7831 14.77515,14.7751 c -4.92505,-4.925 -9.8501,-9.8501 -14.77515,-14.7751 z"/>
    <path style="clip-rule:evenodd;fill:#ffffff;fill-rule:evenodd;image-rendering:optimizeQuality;shape-rendering:geometricPrecision;text-rendering:geometricPrecision" d="M 1684.48,895.997 V 542.716 L 1119.6726,1183.7903 942.722,906.242 744.003,1121.28 1119.27,1444.8126 Z" transform="matrix(0.14648437,0,0,0.14648437,-103.53738,1779.3154)"/>
    <path style="clip-rule:evenodd;fill:#8c508c;fill-rule:evenodd;image-rendering:optimizeQuality;shape-rendering:geometricPrecision;text-rendering:geometricPrecision" class="fil3" d="m 46.275117,1900.4413 c 0,26.5087 -21.49014,47.9992 -48.0002901,47.9992 -26.5091299,0 -47.9995599,-21.4904 -47.9995599,-47.9992 0,-26.5103 21.49043,-48.0006 47.9995599,-48.0006 26.5101501,0 48.0002901,21.4903 48.0002901,48.0006 z"/>
    <path style="clip-rule:evenodd;fill:#793c7c;fill-rule:evenodd;image-rendering:optimizeQuality;shape-rendering:geometricPrecision;text-rendering:geometricPrecision" class="fil4" d="m 9.1596369,1861.0362 c 12.1057301,7.0962 20.2401901,20.2338 20.2401901,35.2795 0,22.5747 -18.3,40.8747 -40.87471,40.8747 -3.23102,0 -6.37,-0.3869 -9.38458,-1.0957 6.05788,3.5515 13.1053999,5.5956 20.6345199,5.5956 22.5750001,0 40.8745601,-18.3 40.8745601,-40.8747 2.9e-4,-19.3434 -13.4407,-35.5374 -31.4898901,-39.7793 z"/>
   </g>
  </g>
 </g>
</svg>

<svg width="256" height="256" version="1.1" viewBox="0 0 67.73 67.73" xmlns="http://www.w3.org/2000/svg" xmlns:xlink="http://www.w3.org/1999/xlink">
 <defs>
  <linearGradient id="linearGradient1108" x1="296" x2="296" y1="-212" y2="202.4" gradientUnits="userSpaceOnUse">
   <stop style="stop-color:#ffffff" offset="0"/>
   <stop style="stop-color:#ffffff;stop-opacity:.09803922" offset=".135"/>
   <stop style="stop-color:#ffffff;stop-opacity:0" offset="1"/>
  </linearGradient>
  <clipPath id="clipPath1082-3-3675">
   <path d="M 361.9375,-212 C 507.2348,-212 528,-191.28677 528,-46.125 V 70.125 C 528,215.28618 507.2348,236 361.9375,236 H 214.0625 C 68.7652,236 48,215.28618 48,70.125 V -46.125 C 48,-191.28677 68.7652,-212 214.0625,-212 Z" style="fill:#8c59d9"/>
  </clipPath>
  <filter id="filter910" x="-.02" y="-.03" width="1.046" height="1.05" style="color-interpolation-filters:sRGB">
   <feGaussianBlur stdDeviation="2.32"/>
  </filter>
  <filter id="filter4569" x="-.01" y="-.01" width="1.023" height="1.025" style="color-interpolation-filters:sRGB">
   <feGaussianBlur stdDeviation="1.16"/>
  </filter>
 </defs>
 <g transform="translate(0,-229.26666)">
  <g transform="matrix(.12974173 0 0 .12974173 3.8344818 227.85345)" style="enable-background:new">
   <path d="m301.90773 44.402363c148.15296 0 169.32628 21.120327 169.32628 169.1351v118.53478c0 148.01417-21.17332 169.1351-169.32628 169.1351h-150.78132c-148.15297 0-169.32628-21.12093-169.32628-169.1351v-118.53478c0-148.01477 21.17331-169.1351 169.32628-169.1351z" style="fill:none;opacity:.2;stroke-linecap:round;stroke-linejoin:round;stroke-width:8.1572313;stroke:#000000"/>
   <path transform="matrix(2.0393079,0,0,2.0393079,-29.55473,37.126102)" d="m162.53675 3.5680001c72.64865 0 83.03125 10.356615 83.03125 82.937505v58.125005c0 72.58059-10.3826 82.9375-83.03125 82.9375h-73.937496c-72.648654 0-83.031254-10.35691-83.031254-82.9375v-58.125005c0-72.58089 10.3826-82.937505 83.031254-82.937505z" style="filter:url(#filter4569);opacity:.1"/>
   <path transform="matrix(2.0393079,0,0,2.0393079,-29.55473,37.126102)" d="m162.53675 5.5680001c72.64865 0 83.03125 10.356615 83.03125 82.937505v58.125005c0 72.58059-10.3826 82.9375-83.03125 82.9375h-73.937496c-72.648654 0-83.031254-10.35691-83.031254-82.9375v-58.125005c0-72.58089 10.3826-82.937505 83.031254-82.937505z" style="filter:url(#filter910);opacity:.2"/>
   <path d="m301.90773 43.795222c148.15296 0 169.32628 21.120327 169.32628 169.1351v118.53478c0 148.01417-21.17332 169.1351-169.32628 169.1351h-150.78132c-148.15297 0-169.32628-21.12093-169.32628-169.1351v-118.53478c0-148.01477 21.17331-169.1351 169.32628-169.1351z" style="fill:#25b2ee"/>
   <path transform="matrix(1.0196539,0,0,1.0196539,-67.14326,259.75844)" d="M 361.9375,-212 C 507.2348,-212 528,-191.28677 528,-46.125 V 70.125 C 528,215.28618 507.2348,236 361.9375,236 H 214.0625 C 68.7652,236 48,215.28618 48,70.125 V -46.125 C 48,-191.28677 68.7652,-212 214.0625,-212 Z" clip-path="url(#clipPath1082-3-3675)" style="fill:none;opacity:.5;stroke-linecap:round;stroke-linejoin:round;stroke-width:8;stroke:url(#linearGradient1108)"/>
   <g transform="matrix(1.5994524,0,0,1.5994524,152.50102,-2822.5049)" style="clip-rule:evenodd;fill-rule:evenodd;image-rendering:optimizeQuality;shape-rendering:geometricPrecision">
    <path class="fil1" d="m50.775117 1900.8169c0 29.4076-23.8418 53.2488-53.25088 53.2488-29.40717 0-53.24868-23.8412-53.24868-53.2488 0-29.4093 23.84136-53.2509 53.24868-53.2509 29.40952 0 53.25059 23.8415 53.25088 53.2509z" style="clip-rule:evenodd;fill-rule:evenodd;fill:#196fba;image-rendering:optimizeQuality;shape-rendering:geometricPrecision"/>
    <polygon class="fil1" transform="matrix(.14648437 0 0 .14648437 -102.97488 1779.3154)" points="959.04 906.24 763.68 1121.28 1076.24 1423.36 1680.64 896 1680.64 542.72 1104 1182.72" style="clip-rule:evenodd;fill-rule:evenodd;fill:#196fba;image-rendering:optimizeQuality;shape-rendering:geometricPrecision"/>
    <path class="fil1" d="m139.45237 1855.4263-0.28011 0.3103v7e-4l-44.421533 49.303-34.22491-34.2249-70.17387 82.5274 70.17387 70.4727 75.750003-77.2506-12.40453-12.4042 24.40488-21.2941v-67.2338l-7.76414 8.6173-1.05936 1.1761zm-37.53282 56.7831 14.77515 14.7751c-4.92505-4.925-9.8501-9.8501-14.77515-14.7751z" style="clip-rule:evenodd;fill-rule:evenodd;fill:#196fba;image-rendering:optimizeQuality;shape-rendering:geometricPrecision"/>
    <path transform="matrix(.14648437 0 0 .14648437 -103.53738 1779.3154)" d="m1684.48 895.997v-353.281l-564.8074 641.0743-176.9506-277.5483-198.719 215.038 375.267 323.5326z" style="clip-rule:evenodd;fill-rule:evenodd;fill:#ffffff;image-rendering:optimizeQuality;shape-rendering:geometricPrecision"/>
    <path class="fil3" d="m46.275117 1900.4413c0 26.5087-21.49014 47.9992-48.00029 47.9992-26.50913 0-47.99956-21.4904-47.99956-47.9992 0-26.5103 21.49043-48.0006 47.99956-48.0006 26.51015 0 48.00029 21.4903 48.00029 48.0006z" style="clip-rule:evenodd;fill-rule:evenodd;fill:#8c508c;image-rendering:optimizeQuality;shape-rendering:geometricPrecision"/>
    <path class="fil4" d="m9.1596369 1861.0362c12.10573 7.0962 20.24019 20.2338 20.24019 35.2795 0 22.5747-18.3 40.8747-40.87471 40.8747-3.23102 0-6.37-0.3869-9.38458-1.0957 6.05788 3.5515 13.1054 5.5956 20.63452 5.5956 22.575 0 40.87456-18.3 40.87456-40.8747 2.9e-4 -19.3434-13.4407-35.5374-31.48989-39.7793z" style="clip-rule:evenodd;fill-rule:evenodd;fill:#793c7c;image-rendering:optimizeQuality;shape-rendering:geometricPrecision"/>
   </g>
  </g>
 </g>
</svg>
